X:1
T:Title
L:1/8
M:4/4
I:linebreak $
K:D
V:1 treble nm="Voice" snm="Voice"
V:1
 (3ABc |: dAFD GBAG |"D" FDFD GBAG |"D" FDFD"G" GEGE | FDFD E2 ABc |$ dAF(D G)BAG | FDFD (GB)AG | %7
 FAdf edce |1 d2 d2 c2 d2 :|2 d2 dc d2 cd |:$ ecAc efge | fdAd fgaf | ecAc efgf | edcB A2 A2 | %14
 BGDG BcdB |$ AFDF ABdA | BdcB AGFE |1 D2 DE D2 cd :|2 [DA-]2 [FA]2 [DA]2 z2 |] %19
